!!!COM: Haydn, Franz Joseph
!!!OPR: String Quartet in E-flat Major
!!!ONM: Opus 1, No. 0
!!!OTL:
!!!OMV: 2
!!!SCT: H II:6
!!!SCA: Thematisch-bibliographisches Werkevererzeichnis (A. van Hoboken)
!!!YOR: Bremner Edition, 1772
!!!EED: Frances Bennion
!!!ENC: Frances Bennion
!!!CDT: 1732/3/31/-1809/5/31/
!!!OCY: Österreich
!!!YEC: Copyright (c) 1994, 2000 Center for Computer Assisted Research in the Humanities
!!!YEM: Rights to all derivative editions reserved.
!!!YEM: Refer to licensing agreement for further details.
!!!YEN: United States of America
**kern	**kern	**kern	**kern
*k[b-e-a-]	*k[b-e-a-]	*k[b-e-a-]	*k[b-e-a-]
*E-:	*E-:	*E-:	*E-:
*clefF	*clefF	*clefC3	*clefF4
*M3/4	*M3/4	*M3/4	*M3/4
*tb16	*tb16	*tb16	*tb16
=1	=1	=1	=1
2G 2e-	2e- 2G	2E-	2E-
16f	4B-	4r	4r
8.d	.	.	.
=2	=2	=2	=2
2e- 2G	2G 2e-	2E-	2E-
16f	4B-	4r	4r
8.d	.	.	.
=3	=3	=3	=3
16e-	4e-	4r	4r
8.g	.	.	.
16f	4B-	4r	4r
8.a-	.	.	.
16d	4d	4B-	4B-
8.f	.	.	.
=4	=4	=4	=4
16e-	4e-	4e-	4E-
8.g	.	.	.
4f	4d	4B-	4BB-
4r	4r	4r	4r
=5	=5	=5	=5
2B- 2f	2B- 2f	2d	2BB-
16a-	4B-	4r	4r
8.f	.	.	.
=6	=6	=6	=6
16e-	4e-	4r	4r
8.g	.	.	.
16f	4B-	4r	4r
8.a-	.	.	.
16f	4B-	4A-	4AA-
8.d	.	.	.
=7	=7	=7	=7
16e-	4B-	8.G	8.GG
8.B-	.	.	.
.	.	16A-	16AA-
4g	4e-	4B-	4BB-
4f	4d	4B-	4BB-
=8	=8	=8	=8
2e-	2e-	4e-	4E-
.	.	4B-	4BB-
4r	4r	4E-	4EE-
=9	=9	=9	=9
2b-	2g	2e-	2E-
16g	4e-	4g	4G
8.e-	.	.	.
=10	=10	=10	=10
16d	16B-	4b-	4B-
8.g	8.e-	.	.
4f	4d	2r	2r
4r	4r	.	.
=11	=11	=11	=11
4ee-	2A	2f	2F
16cc	.	.	.
8.a	.	.	.
16f	4c	4a	4A
8.e-	.	.	.
=12	=12	=12	=12
16d	16B-	4b-	4B-
8.g	8.e-	.	.
4f	4d	2r	2r
4r	4r	.	.
=13	=13	=13	=13
2ff	2dd	2B-	2BB-
16dd	16b-	4d	4D
8.b-	8.f	.	.
=14	=14	=14	=14
16a	2e-	2f	2F
8.ee-	.	.	.
16cc	.	.	.
8.a	.	.	.
16f	4c	4a	4A
8.e-	.	.	.
=15	=15	=15	=15
4d	4B-	4b-	4B-
4b-	4b-	4d	4D
4a	4a	4f	4F
=16	=16	=16	=16
2b-	2b-	4B-	4BB-
.	.	4b-	4B-
4r	4r	4r	4r
=17	=17	=17	=17
2.e	16c	2.G	2.C
.	8.B-	.	.
.	16c	.	.
.	8.B-	.	.
.	16c	.	.
.	8.B-	.	.
=18	=18	=18	=18
16f	4A-	4A-	4FF
8.a-	.	.	.
16A-	2r	2r	2r
8.c	.	.	.
16f	.	.	.
8.a-	.	.	.
=19	=19	=19	=19
2.d	16B-	2.F	2.BB-
.	8.A-	.	.
.	16B-	.	.
.	8.A-	.	.
.	16B-	.	.
.	8.A-	.	.
=20	=20	=20	=20
16e-	4G	4G	4EE-
8.g	.	.	.
16G	2r	2r	2r
8.B-	.	.	.
16e-	.	.	.
8.g	.	.	.
=21	=21	=21	=21
4b-	4g	4e-	4E-
4a-	4f	4r	4r
4g	4e-	4e-	4E-
=22	=22	=22	=22
2f	2d	4b-	4B-
.	.	8B-	8B-
.	.	8A-	8A-
4r	4r	8G	8G
.	.	8F	8F
=23	=23	=23	=23
2G 2e-	2G 2e-	2E-	2E-
16f	4B-	4r	4r
8.d	.	.	.
=24	=24	=24	=24
2e- 2G	2e- 2G	2E-	2E-
16f	4B-	4r	4r
8.d	.	.	.
=25	=25	=25	=25
16e-	4e-	4r	4r
8.g	.	.	.
16f	4B-	4r	4r
8.a-	.	.	.
16d	4d	4B-	4B-
8.f	.	.	.
=26	=26	=26	=26
16e-	4e-	4e-	4E-
8.g	.	.	.
4f	4d	4B-	4BB-
4r	4r	4r	4r
=27	=27	=27	=27
2B- 2f	2B- 2f	2d	2BB-
16a-	4B-	4r	4r
8.d	.	.	.
=28	=28	=28	=28
16e-	4e-	4r	4r
8.g	.	.	.
16f	4B-	4r	4r
8.a-	.	.	.
16f	4B-	4A-	4AA-
8.d	.	.	.
=29	=29	=29	=29
16e-	4B-	8.G	8.GG
8.B-	.	.	.
.	.	16A-	16AA-
4g	4e-	4B-	4BB-
4f	4d	4B-	4BB-
=30	=30	=30	=30
2e-	2e-	4e-	4E-
.	.	4B-	4BB-
4r	4r	4E-	4EE-
=31	=31	=31	=31
2.cc	4r	4r	4r
.	8c	4c	4C
.	8d	.	.
.	8e-	4A-	4AA-
.	8f#	.	.
=32	=32	=32	=32
4b	4g	4G	4GG
8g	2r	2r	2r
8f#	.	.	.
8g	.	.	.
8a	.	.	.
=33	=33	=33	=33
2.b-	4r	4r	4r
.	8B-	4b-	4B-
.	8c	.	.
.	8d-	4g	4G
.	8e	.	.
=34	=34	=34	=34
4a	4f	4f	4F
8f	2r	2r	2r
8e	.	.	.
8f	.	.	.
8g	.	.	.
=35	=35	=35	=35
2.a-	4r	4r	4r
.	8A-	4a-	4A-
.	8B-	.	.
.	8c	4f	4F
.	8d	.	.
=36	=36	=36	=36
4g	4e-	4e-	4E-
8e-	2r	2r	2r
8f	.	.	.
8g	.	.	.
8a-	.	.	.
=37	=37	=37	=37
[2.b-	4r	4r	4r
.	8d	8B-	8BB-
.	8e-	8c	8C
.	8f	8d	8D
.	8g	8e-	8E-
=38	=38	=38	=38
2.b-]	4a-	4f	4F
.	8B-	8d	8D
.	8c	8e-	8E-
.	8d	8f	8F
.	8e-	8g	8G
=39	=39	=39	=39
4b-	4f	4a-	4A-
8b-	4r	2r	2r
8cc	.	.	.
8dd	8B-	.	.
8ee-	8c	.	.
=40	=40	=40	=40
8ff	8d	2.r	2.r
8gg	8e-	.	.
8aa-	8f	.	.
8ff	8a-	.	.
8ee-	8g	.	.
8dd	8f	.	.
=41	=41	=41	=41
4ee-	4e-	8.g	8.G
.	.	16a-	16A-
4g	4e-	4b-	4B-
4f	4d	4B-	4BB-
=42	=42	=42	=42
2e-	2e-	4e-	4E-
.	.	4B-	4BB-
4r	4r	4E-	4EE-
=43	=43	=43	=43
2.bb-	2.r	4r	2.r
.	.	8g	.
.	.	8a-	.
.	.	8b-	.
.	.	8cc	.
=44	=44	=44	=44
4bb-	2.r	4dd-	2.r
8aa-	.	8cc	.
8gg	.	8b-	.
8ff	.	8a-	.
8ee	.	8g	.
=45	=45	=45	=45
2.ff	4f	2.f	2.r
.	8e-	.	.
.	8d-	.	.
.	8c	.	.
.	8B-	.	.
=46	=46	=46	=46
4ff	4A-	2.f	2.r
8ee-	4B-	.	.
8dd-	.	.	.
8cc	4c	.	.
8b-	.	.	.
=47	=47	=47	=47
4a-	2.d-	2.f	2.r
8f	.	.	.
8g	.	.	.
8a-	.	.	.
8b	.	.	.
=48	=48	=48	=48
4cc	4c	4e	2.r
4c	2r	8c	.
.	.	8d	.
4r	.	8e	.
.	.	8f	.
=49	=49	=49	=49
4dd-	2.e	2g	2.BB-
8cc	.	.	.
8b-	.	.	.
8a-	.	4B-	.
8g	.	.	.
=50	=50	=50	=50
8f	2.f	2.A-	2.AA-
8g	.	.	.
8a-	.	.	.
8b-	.	.	.
8cc	.	.	.
8dd	.	.	.
=51	=51	=51	=51
4ee-	2.f#	2c	2.AA-
8dd	.	.	.
8cc	.	.	.
8b	.	4A-	.
8cc	.	.	.
=52	=52	=52	=52
4g	4g	4G	4GG
2r	2r	8g	8G
.	.	8f	8F
.	.	8e-	8E-
.	.	8d	8D
=53	=53	=53	=53
4r	2.e-	4c	2.C
8cc	.	2r	.
8dd	.	.	.
8ee-	.	.	.
8ff	.	.	.
=54	=54	=54	=54
8gg	2.d	4r	2.BB
8ff#	.	.	.
8gg	.	8dd	.
8ff#	.	8cc	.
4gg	.	8b	.
.	.	8a	.
=55	=55	=55	=55
4r	2.d-	4g	2.BB-
8b-	.	2r	.
8cc	.	.	.
8dd-	.	.	.
8ee	.	.	.
=56	=56	=56	=56
8ff	2.c	4r	2.AA
8ee	.	.	.
8ff	.	8cc	.
8ee	.	8b-	.
4ff	.	8a	.
.	.	8g	.
=57	=57	=57	=57
4r	2.c	4f	2.AA-
8a-	.	2r	.
8b-	.	.	.
8cc	.	.	.
8dd	.	.	.
=58	=58	=58	=58
8ee-	2.B-	4r	2.GG
8dd	.	.	.
8ee-	.	8b-	.
8dd	.	8a-	.
4ee-	.	8g	.
.	.	8f	.
=59	=59	=59	=59
4ee-	2A	2.e-	2.FF#
8dd	.	.	.
8cc	.	.	.
8b	4c	.	.
8cc	.	.	.
=60	=60	=60	=60
8b	8d	4d	4GG
8a-	8f	.	.
8g	8e-	2r	2r
8f	8d	.	.
8e-	8c	.	.
8d	8B	.	.
=61	=61	=61	=61
4e-	4c	4c	4C
4c	4c	4E-	4G
4B	4B	4D	4GG
=62	=62	=62	=62
2c	2c	4C	4C
.	.	2r	4GG
4r	4r	.	4CC
==	==	==	==
*-	*-	*-	*-
!!!RWG1: This file contains only pitch and duration data.
!!!RWG2: Transposing instruments are not transposed.
!!!RWG3: Spines may have incompatible meters.
!!!RWG4: Durations of rests and tied notes may be interpreted.
!!!RWG: Key is interpreted using the Humdrum key tool.
!!!GTL: 10 Divertimentos
!!!AFT: stage1
!!!END: 1997/04/15
!!format changes:
!!content changes:
!!public access: complete
!!!KEY: 3168560717
!!!EMD: Converted from MuseData to Humdrum Dec 16, 2000, by Andreas Kornstaedt using muse2kern.
